X:1
T:Home at Last
T:Robert Lowry
T:Home at Last
T:Public Domain
T:Public Domain
C:Robert Lowry
Z:Public Domain
%%score ( 1 2 ) ( 3 4 )
L:1/8
M:4/4
K:G
V:1 treble 
V:2 treble 
V:3 bass 
V:4 bass 
V:1
 [DG]3 [GB] [Gd]3 [GB] | ([FA][GB])([Ac][ce]) ([Bd]>[GB]) [DG]2 | [EG]3 [CE] [EG]3 [CE] | %3
w: 1.~Cheer, O cheer, ye|sons * of * Zi- * on!|Wear- y days will|
w: 2.~Cheer, O cheer, the|morn * is * break- * ing!|Gloom- y night will|
w: 3.~Cheer, O cheer, the|morn * is * break- * ing!|Bright its beams of|
 D2 [DG]2 [FA]4 | G3 [GB] [Gd]3 [GB] | ([FA][GB])([Ac][ce]) ([Bd]>[GB]) G2 | %6
w: soon be past;|bright ban- ner wav-|o’er * us * Tells * that|
w: dis- ap- pear;|will come with sweet|wak- * ing; * Hap- * pier|
w: prom- ise rise;|O sing, ye heirs|Zi- * on! * Hear * the|
 [Ge]3 [Ge] [Gd]2 (dB) | [DG]2 [DA]2 [DG]4 |"^Duet" [Ac]3 [GB] ([FA][EG])([DF][EG]) | %9
w: is won at last. *|that fair, ce-|les- tial morn- * ing, *|
w: will soon be here; *|the pil- grim|path we’ve wan- * dered, *|
w: come from the skies: *|ye bless- èd|of my Fa- * ther,” *|
 ([FA][ce])([Bd][Ac]) ([GB]>[Ac]) [Bd]2 | [GB]3 [=FB] [Ec]2 [Ec]2 | [DB]2 [GB]2 [FA]4 | %12
w: Comes * no * cloud * of|grief or pain; In|your peace- ful|
w: Long * we’ve * hoped * ’mid|doubt and fear, Hard|we’ve pressed thro’|
w: Faint * no * more * ’mid|doubts and fears; Heav-|en’s bright portal|
 [Ac]3 [GB] ([FA][EG])([DF][EG]) | ([FA][GB])([Ac][ce]) ([ce][Bd]) [Bd]2 | %14
w: tents a- bid- * ing, *|Sor- * row * ne’er * shall|
w: many a bat- * tle— *|Now * the * day * of|
w: opes be- fore * you; *|Wait * for * you * im-|
 [A^c]3 [Gc] (dA)([FA][EG]) | [^CE]2 [CA]2 (z2 (3[A^c][GB][FA]) || %16
w: come a- gain. * * *||
w: peace is here. * Cheer, *|cheer, ye * * *|
w: mor- tal years. * * *||
"^Refrain" [DG]3 [GB] [Gd]3 [GB] | ([FA][GB])([Ac][ce]) ([Bd]>[GB]) [DG]2 | [EG]3 [CE] [EG]3 [CE] | %19
w: |||
w: * of Zi- on!|Wear- * y * days * will|soon be past; Joy’s|
w: |||
 D2 [DG]2 [FA]4 | G3 [GB] [Gd]3 [GB] | ([FA][GB])([Ac][ce]) ([Bd]>[GB]) G2 | %22
w: |||
w: bright ban- ner|ing o’er us Tells|Heav’n * is * won * at|
w: |||
 [Ge]3 [Ge] [Gd]2 (dB) | [DG]2 [DA]2 [DG]4 |] %24
w: ||
w: ||
w: ||
V:2
 x8 | x8 | x8 | D2 x6 | G3 x5 | x6 G2 | x6 G2 | x8 | x8 | x8 | x8 | x8 | x8 | x8 | x4 F2 x2 | %15
w: |||Joy’s|ing|Heav’n|On|||||||||
w: |||Christ|a-|days|Long||||||||O|
w: |||Sing,|of|wel-|“Come,|||||||||
 x4 D4 || x8 | x8 | x8 | D2 x6 | G3 x5 | x6 G2 | x6 G2 | x8 |] %24
w: |||||||||
w: sons||||wav-|that|last.|||
w: |||||||||
V:3
 [G,B,]3 [G,D] [G,B,]3 [G,D] | [D,D]2 [D,D]2 [G,D]2 [G,B,]2 | [C,C]3 [C,G,] [C,C]3 [C,G,] | %3
 [B,,G,]2 [G,,B,]2 [D,D]4 | [G,B,]3 [G,D] [G,B,]3 [G,D] | [D,D]2 [D,D]2 [G,D]2 [G,B,]2 | %6
 [C,C]3 [E,C] [G,B,]2 [B,,D]2 | [D,B,]2 [D,C]2 [G,,B,]4 | D,3 D, D,2 D,2 | D,2 D,2 G,2 G,2 | %10
 G,3 G, C,2 E,2 | G,2 G,,2 D,4 | D,3 D, D,2 D,2 | D,2 D,2 G,2 G,2 | E,3 E, D,2 (D,G,) | %15
 A,2 A,,2 D,4 || [G,B,]3 [G,D] [G,B,]3 [G,D] | [D,D]2 [D,D]2 [G,D]2 [G,B,]2 | %18
 [C,C]3 [C,G,] [C,C]3 [C,G,] | [B,,G,]2 [G,,B,]2 [D,D]4 | [G,B,]3 [G,D] [G,B,]3 [G,D] | %21
 [D,D]2 [D,D]2 [G,D]2 [G,B,]2 | [C,C]3 [E,C] [G,B,]2 [B,,D]2 | [D,B,]2 [D,C]2 [G,,B,]4 |] %24
V:4
 x8 | x8 | x8 | x8 | x8 | x8 | x8 | x8 | D,3 D, D,2 D,2 | D,2 D,2 G,2 G,2 | G,3 G, C,2 E,2 | %11
 G,2 G,,2 D,4 | D,3 D, D,2 D,2 | D,2 D,2 G,2 G,2 | E,3 E, D,2 x2 | A,2 A,,2 D,4 || x8 | x8 | x8 | %19
 x8 | x8 | x8 | x8 | x8 |] %24

